app/dist/common/images/lithia-motors-inc.svg

<svg height="18" width="18" xmlns="http://www.w3.org/2000/svg"><path d="m0 0h18v18h-18z" fill="#0193d0"/><path d="m4 4h8.182c1.004 0 1.818.814 1.818 1.818v8.182h-8.182a1.818 1.818 0 0 1 -1.818-1.818z" fill="#fff"/><g fill="#0193d0"><path d="m5 7.889v-3.889h.515v3.889c0 1.898.073 1.902 2.727 3.384 2.195 1.225 4.341 2.055 5.758 2.727h-3.129c-1.69-1.002-4.121-2.25-5.371-3.5-.644-.644-.5-2.223-.5-2.611z"/><path d="m6 7.889v-3.889h.5v3.889c0 .215-.071.65.304.896.636.416 4.88 1.82 7.196 2.516v1.41c-2.107-.838-6.62-2.736-7.321-3.128-.791-.443-.679-1.139-.679-1.694z"/></g></svg>

<!-- by TradingView --><svg width="18" height="18" xmlns="http://www.w3.org/2000/svg"><path fill="#0193D0" d="M0 0h18v18H0z"/><path d="M4 4h8.182C13.186 4 14 4.814 14 5.818V14H5.818A1.818 1.818 0 014 12.182V4z" fill="#fff"/><path d="M5 7.889V4h.515v3.889c0 1.898.073 1.902 2.727 3.384C10.437 12.498 12.583 13.328 14 14h-3.129c-1.69-1.002-4.121-2.25-5.371-3.5-.644-.644-.5-2.223-.5-2.611z" fill="#0193D0"/><path d="M6 7.889V4h.5v3.889c0 .215-.071.65.304.896.636.416 4.88 1.82 7.196 2.516v1.41c-2.107-.838-6.62-2.736-7.321-3.128C5.888 9.14 6 8.444 6 7.889z" fill="#0193D0"/></svg>
